public/icons/icon/comment.svg

<svg width="30" height="30" viewBox="0 0 30 30" fill="none" xmlns="http://www.w3.org/2000/svg">
<path d="M4.99999 3.00004C2.79086 3.00005 1 4.79091 1 7.00004V17.0001C1 19.2092 2.79086 21.0001 5 21.0001H15.0001L21 27V21.0001H25C27.2091 21.0001 29 19.2092 29 17.0001V7C29 4.79086 27.2091 3 25 3L4.99999 3.00004Z" stroke="black" stroke-width="2" stroke-linejoin="round"/>
</svg>

<svg xmlns="http://www.w3.org/2000/svg" width="30" height="30" fill="none"><path stroke="#000" stroke-linejoin="round" stroke-width="2" d="M5 3a4 4 0 0 0-4 4v10a4 4 0 0 0 4 4h10l6 6v-6h4a4 4 0 0 0 4-4V7a4 4 0 0 0-4-4H5Z"/></svg>
